X:10
T: Jerusalem Ridge
C: Bill Monroe
S: Jimmy Gaudreau
S: MandoZine TablEdit Archives
Z: TablEdited by Steve Keating for MandoZine
L: 1/8
Q: 480
M: 4/4
K: Am
 A,B, CD E2 EF | ED CE D^D =DC | A,B, CD EG ED | CE DC A,A, A,A, |
 A,B, CD EC DC | FD DD ^D=D D^D | DC A,B, CD EG | DG EC A,2 A,G, |
 A,B, CD EC CF | FC EC CF zC | A,C DF EC DE | D^D =DC A,2 A,G, |
 A,B, CD ED EG | AG ED EG AG | AG EG AG AG | EA EC A,4 |
 EG A2 A4 | EG Ac (3BcB AG | EG AB AG EG | AB c2 [e2e2] [e2e2] |
 EG A2 [A2A2] AA | A2 AB cA Bc | ef ed cB Ac | BA G2 A2 A2 |
 EG A2 A2 AA | AA AB cB AG | EG AB AG EG | AB c2 e2 [e2e2] |
 EG A2 [A2A2] AA | AA AB cA Bc | ef ed cB Ac | BA G2 A4
 |: (3AAA G^F E2 (3EEE | E2 (3FFE D2 DD | D2 (3E^D=D C4 | B,4 A,4 :|
 de a2 ea ^de | a2 b2 c'c' c'c' | e2 e2 g2 ag | c'a gg ^d=d c2 |
 ea ze ae ab | c'a b2 ag ee | eg e^d =dc Ac | BA G2 A2 AA |
 AA AA AG ED | EG AG ED C2 | DE DC A,2 A,B, | CD EG A2 AA |
 A2 AA A2 d^d | ea ze a2 ab | c'a b2 aa z2 | c'2 c'c' zd' z2 |
 d'e' z2 d'2 c'2 | e2 ae ae ab | c'a b2 a2 d^d | eg e^d =dc Ad |
 (3cBA GB A4 | ga za (3age d2 | de ee ed Ac | BA G2 A2 AA | A4 A4 ||
